casedrop/img/header/scroll/icons/crown.svg

<svg width="13" height="13" viewBox="0 0 13 13" fill="none" xmlns="http://www.w3.org/2000/svg">
<path d="M12.5056 7.476L12.6489 5.95394C12.7614 4.75856 12.8176 4.16087 12.6131 3.91379C12.5025 3.78014 12.3521 3.69825 12.1912 3.68412C11.8939 3.65801 11.5206 4.08306 10.7738 4.93317C10.3876 5.37281 10.1946 5.59262 9.97912 5.62669C9.85981 5.6455 9.73818 5.62612 9.62794 5.57069C9.42906 5.47056 9.29644 5.19882 9.03119 4.65532L7.63319 1.79053C7.132 0.763512 6.88137 0.25 6.5 0.25C6.11862 0.25 5.868 0.763512 5.36681 1.79054L3.96879 4.65532C3.70356 5.19882 3.57094 5.47056 3.37204 5.57069C3.26182 5.62612 3.14021 5.6455 3.02085 5.62669C2.80545 5.59262 2.61235 5.37281 2.22617 4.93317C1.47942 4.08306 1.10605 3.65801 0.808742 3.68412C0.647911 3.69825 0.497486 3.78014 0.386867 3.91379C0.182374 4.16087 0.238624 4.75856 0.35113 5.95394L0.494374 7.476C0.730405 9.98387 0.848423 11.2378 1.58755 11.9939C2.32669 12.75 3.43448 12.75 5.65006 12.75H7.34994C9.5655 12.75 10.6733 12.75 11.4124 11.9939C12.1516 11.2378 12.2696 9.98387 12.5056 7.476Z" fill="#8B95AD"/>
</svg>

<svg width="13" height="13" fill="none" xmlns="http://www.w3.org/2000/svg"><path d="M12.506 7.476l.143-1.522c.112-1.195.169-1.793-.036-2.04a.62.62 0 00-.422-.23c-.297-.026-.67.4-1.417 1.25-.386.439-.58.659-.795.693-.12.019-.24 0-.351-.056-.199-.1-.332-.372-.597-.916L7.633 1.791C7.132.764 6.881.25 6.5.25s-.632.514-1.133 1.54L3.969 4.656c-.265.544-.398.816-.597.916a.578.578 0 01-.351.056c-.216-.034-.409-.254-.795-.694-.747-.85-1.12-1.275-1.417-1.249a.62.62 0 00-.422.23c-.205.247-.148.845-.036 2.04l.143 1.522c.236 2.508.354 3.762 1.094 4.518.739.756 1.846.756 4.062.756h1.7c2.216 0 3.323 0 4.062-.756.74-.756.858-2.01 1.094-4.518z" fill="#8B95AD"/></svg>
